X: 12099
T: Eugene Stratton
R: hornpipe
M: 4/4
K: Gmajor
D|:G2 DG BDGB|d2 ef gdBG|A2 EA cEAG|(3FGA d^c ed=cA|
G2 DG BDGB|d2 ef gdBG|ecAG FAdc|1 BGAF G3D:|2 BGAF G2 (3def||
|:gG G2 eG G2|Bdef gdBG|cEGc BDGB|Ad^ce de (3fed|
gG G2 eG G2|Bdef gdBG|ecAG FAdc|1 BGAF G2 (3def:|2 BGAF G3D||

